X:8
T:Honey Moon. THO5.008, The
M:6/8
L:1/8
B:Thompson's Complete Collection of 200 Favourite Dances Vol.5
F:https://www.libraryofdance.org/manuals/1780c-Thompson-Compleat-5.pdf
Z:vmp. Peter Dunk 2024
Q:3/8=100
K:A
e/d/|c>BA AGA|ddd d>ec|BBA G>FG|ABc B2 e/d/|
c>BA AGA|ddd d>ec|BBA Bdf|c>dB !fine!A2:|
e/d/|B>cd e2 (f//g//a/)|eca ecA|c>de (f//g//a/)|eca ecA|
Bcd efg|ac^d e2e|Bc^d efg|ac^d !D.C.!e2|]
W:
W:Three Ladies promenade round the three Gents ./.
W:Three Gents round the ladies ./: Lead down the
W:middle, up again, cast off :/. Allemand with your partner :/:

